X:314
T:Reel 314
M:4/4
K:Dmaj
L:1/8
AG|FDDF E>D (3CB,C |DCDF F2GE|F>D (3DCD FEDF|EA,CA, EA,DC (3A,B,C |DEDE FGAF|GEFD EFGE|FEDC DEFG|AdcA GECE|FDDE DCDE|FEFG FABc|FEDC DEFG|EDCD EFGE|FEDF E2DE|FDFA d2cB| (3ABc Bd FECE|FGEF D2|FA| (3dcd Ac BGAF| (3EFE AE CEA,E| (3FED AD BDAD|GECE A,2AG| (3FED AD BDAD| (3CDA, AG FDEC|DB,ED CEGG|FDEC D2|
